images/bitbucket_ico.svg

<?xml version="1.0" encoding="UTF-8" standalone="no"?>
<svg xmlns="http://www.w3.org/2000/svg" xmlns:sodipodi="http://sodipodi.sourceforge.net/DTD/sodipodi-0.dtd" xmlns:inkscape="http://www.inkscape.org/namespaces/inkscape" version="1.1" width="72" height="72" viewBox="0 0 72 72">
 <metadata id="metadata8"/>
 <path d="m 25.971819,67.69508 c -7.614531,-2.05219 -8.748862,-3.308333 -10.351425,-11.463004 -0.640792,-3.260681 -1.02861,-6.064977 -0.861818,-6.231773 0.166792,-0.166791 2.219568,0.646035 4.561722,1.806285 5.315224,2.633029 9.819767,3.607197 16.679723,3.607197 6.859954,0 11.364502,-0.974168 16.679726,-3.607197 2.342152,-1.16025 4.394932,-1.973076 4.56172,-1.806285 0.166795,0.166796 -0.224051,3.005158 -0.868544,6.30748 -1.074426,5.505268 -1.324635,6.158359 -3.010947,7.859048 -2.933299,2.958329 -7.317095,4.121807 -16.342619,4.337409 -6.099217,0.145696 -8.029078,0.0047 -11.047538,-0.80916 z M 29.720214,49.827179 C 25.817218,49.339366 19.849215,47.642477 17.148473,46.252637 16.16397,45.745999 14.696384,44.63447 13.88717,43.782562 12.488801,42.310428 12.290647,41.483654 9.8894082,27.102463 7.365549,11.986888 7.3639597,11.969898 8.3495589,10.638902 11.754602,6.0405852 21.730129,3.4453476 36.000021,3.4453476 c 14.269896,0 24.24542,2.5952376 27.650467,7.1935544 0.985599,1.330998 0.984013,1.347957 -1.540755,16.468954 -2.503394,14.993046 -2.543149,15.15287 -4.192317,16.854382 -4.246777,4.381559 -17.691381,7.178001 -28.197202,5.864941 z m 9.717784,-6.392333 c 2.421075,-1.011589 3.578869,-2.08418 4.770945,-4.419849 2.139722,-4.192415 0.560305,-9.595434 -3.500632,-11.975302 -6.24462,-3.659589 -13.882314,0.704095 -13.882314,7.931453 0,6.517858 6.626325,10.964675 12.612001,8.463698 z m -6.315591,-5.521654 c -1.921098,-1.652462 -1.894904,-4.616593 0.05563,-6.294363 4.258917,-3.663365 9.745177,2.598997 5.568753,6.356527 -1.649735,1.484259 -3.854881,1.459888 -5.624375,-0.06217 z M 44.608679,15.14451 c 5.963467,-0.747756 9.441769,-1.969627 9.643573,-3.38763 C 54.471413,10.216858 52.443855,9.2581194 46.936923,8.2977907 35.355426,6.2781472 17.651972,8.2220031 17.651972,11.513306 c 0,1.663078 3.596363,2.862481 11.467531,3.824475 3.363711,0.411105 11.47651,0.309875 15.489176,-0.193271 z" id="path3340" inkscape:connector-curvature="0"/>
</svg>

<svg xmlns="http://www.w3.org/2000/svg" viewBox="0 0 72 72"><path d="m25.972 67.7c-7.615-2.052-8.749-3.308-10.351-11.463-.641-3.261-1.029-6.06-.862-6.232.167-.167 2.22.646 4.562 1.806 5.315 2.633 9.82 3.607 16.68 3.607 6.86 0 11.365-.974 16.68-3.607 2.342-1.16 4.395-1.973 4.562-1.806.167.167-.224 3.01-.869 6.307-1.074 5.505-1.325 6.158-3.01 7.859-2.933 2.958-7.317 4.122-16.343 4.337-6.099.146-8.03.005-11.05-.809m3.748-17.868c-3.903-.488-9.871-2.185-12.572-3.575-.985-.507-2.452-1.618-3.261-2.47-1.398-1.472-1.597-2.299-3.998-16.68-2.524-15.12-2.525-15.13-1.54-16.464 3.405-4.598 13.381-7.194 27.65-7.194 14.27 0 24.25 2.595 27.65 7.194.986 1.331.984 1.348-1.541 16.469-2.503 14.993-2.543 15.15-4.192 16.854-4.247 4.382-17.691 7.178-28.2 5.865m9.718-6.392c2.421-1.012 3.579-2.084 4.771-4.42 2.14-4.192.56-9.595-3.501-11.975-6.245-3.66-13.882.704-13.882 7.931 0 6.518 6.626 10.965 12.612 8.464m-6.316-5.522c-1.921-1.652-1.895-4.617.056-6.294 4.259-3.663 9.745 2.599 5.569 6.357-1.65 1.484-3.855 1.46-5.624-.062m11.486-22.769c5.963-.748 9.442-1.97 9.644-3.388.219-1.54-1.808-2.499-7.315-3.459-11.581-2.02-29.28-.076-29.28 3.216 0 1.663 3.596 2.862 11.468 3.824 3.364.411 11.477.31 15.489-.193"/></svg>
